X:64
T:Westphalia Harmony 1
C:adapted from The Delivery Boys - www.deliveryboys.net
M:3/4
L:1/8
R:Waltz
Z:SG
K:G
z4|: "G"B,4C2 | "GM7"D4c2 | "Em"B4B^A| "Bm"B3D ^C=C | "G"B,4C2 | "E"E4EB, | 
"Am"C4CD | "D"C4D2 |c4d2 | "Am"e4b2 |"D"a4 ab | a4(3gag | 
f4g2 |1 "D7"f4 A2 | "G"G4GA | "D"G3D^C=C :|2 f4c2 | "G"B2^A2Bc | B2G2A^A ||
|: "G"B2zB (3BBB| "GM7"B2zB (3BBB | "Em"B2c2de | "Bm"G6 | "G"(3GAG F2D2 | "G"(3GAG F2D2 | 
"Am"F4FG| "D"F6 | "Am"A2zA (3AAA | "G#dim"^G2zG (3GGG |"C"G2A2B2 | "D"A4G2 | 
F3=F ^FG |1 "D7"F2=F2E2| "G"D6 | D4z2 :|2"D" F4C2 | "G"(3B,CB, ^A,B, DG | [G6B,6] |]
